X: 38511
T: Steffaleken
R: waltz
M: 3/4
K: Dmajor
(A/|(3d2)(d2c2) A>d|(3f2(f2d2) e>f|(3g(eg) (3f(df) e>c|((3def) (dc) A>A|
(3d2(d2c2) A>d|(3f2(f2d2) e>f|(3g(eg) (3f(df) e>c|((3def) d2d3/2:|
|:(f/|(3a2)(a2f2) g>e|(3f2(f2d2) e>f|(3g(eg) (3f(df) e>c|((3def) (dc) A>f|
(3a2(a2f2) g>e|(3f2(f2d2) e>f|(3g(eg) (3f(df) e>c|((3def) d2d3/2:|

